localPackages/DesignSystem/Sources/DesignSystem/Resources/Assets.xcassets/IconSet/ic-calendar-month.imageset/ic-calendar-month.svg

<svg width="24" height="24" viewBox="0 0 24 24" fill="none" xmlns="http://www.w3.org/2000/svg">
<g id="ic-calendar-month">
<path id="Icon" fill-rule="evenodd" clip-rule="evenodd" d="M16.5 4.5H7.5V2.25C7.5 1.83579 7.16421 1.5 6.75 1.5C6.33579 1.5 6 1.83579 6 2.25V4.5C3.51472 4.5 1.5 6.51472 1.5 9V18C1.5 20.4853 3.51472 22.5 6 22.5H18C20.4853 22.5 22.5 20.4853 22.5 18V9C22.5 6.51472 20.4853 4.5 18 4.5V2.25C18 1.83579 17.6642 1.5 17.25 1.5C16.8358 1.5 16.5 1.83579 16.5 2.25V4.5ZM6 6H7.5V9H3C3 7.34315 4.34315 6 6 6ZM7.5 10.5H3V16.5H7.5L7.5 10.5ZM9 16.5L9 10.5H15V16.5H9ZM7.5 18H3C3 19.6569 4.34315 21 6 21H7.5V18ZM9 21H15V18H9V21ZM9 9V6H15V9H9ZM16.5 9V6H18C19.6569 6 21 7.34315 21 9H16.5ZM16.5 10.5V16.5H21V10.5H16.5ZM21 18C21 19.6569 19.6569 21 18 21H16.5V18H21Z" fill="#0F0F0F"/>
</g>
</svg>

<svg xmlns="http://www.w3.org/2000/svg" width="24" height="24" viewBox="0 0 24 24">
  <g class="ic-calendar-month">
    <path fill-rule="evenodd" d="M16.5 4.5h-9V2.25a.75.75 0 0 0-1.5 0V4.5A4.5 4.5 0 0 0 1.5 9v9A4.5 4.5 0 0 0 6 22.5h12a4.5 4.5 0 0 0 4.5-4.5V9A4.5 4.5 0 0 0 18 4.5V2.25a.75.75 0 0 0-1.5 0V4.5ZM6 6h1.5v3H3a3 3 0 0 1 3-3Zm1.5 4.5H3v6h4.5v-6Zm1.5 6v-6h6v6H9ZM7.5 18H3a3 3 0 0 0 3 3h1.5v-3ZM9 21h6v-3H9v3ZM9 9V6h6v3H9Zm7.5 0V6H18a3 3 0 0 1 3 3h-4.5Zm0 1.5v6H21v-6h-4.5ZM21 18a3 3 0 0 1-3 3h-1.5v-3H21Z" class="Icon"/>
  </g>
</svg>
